X:1
T:Our Baby Died Last Night
M:6/8
L:1/8
K:C
 E| E2 F E2 D| C4- CG| c2 c dcA| G- E4 G| c2 c B2 A| A G2- G G3.99999962500005/5.99999925000009 G3.99999962500005/5.99999925000009 G3.99999962500005/5.99999925000009|\
 A2 G F2 E| E/2D/2 D2- D2||
